X:197
T:French Waltz, A. CJF.197
R:Waltz
S:C.J.Fox MS, 1829/33, Beverley,E.Yorks.
N:”C J Fox” is written in the stave at the end of the tune. – PJH.
B:Kidson Coll.Mitchell Lib.M1805
O:England
A:East Yorkshire
Z:vmp.P J Headford 2000 & 2008
M:3/8
L:1/32
Q:3/8=55
K:F
(cf3a)|c’6 (bg3a)|f4 z3cf3a|(g3f)(e3f)(b3a)|a3g z3cf3a|!
a6 (bg3a)|f4 z3cf3a|g3fe3dc3=B|c4z3:||!
ce3g|b3az3cf3a|(c’3b)z3ce3g|(b3a)z3cf3a|c’3b z3ce3g|!
b3a z3cf3a|b3ag3fe3d|c3=Bc3de3c|f4″ Fine”z3:||!
“Minore”Ad3f|a4a4a4|.b4(b4a4)|^g8a4|e4 z3A=B3^c|!
d4d4d4|_e6bg3_e|d4d3f e3^c|d4 z3:|!
|:fe3d|^c3c z3gf3e|d2d2 z3fg3a|b4a4^g4|a4 z3A=B3^c|!
d4d4d4|_e7bg3e|d4d3ge3^c|d4” D.C.”z3:|

